X: 144
%
U:~=!turn!
T: Dr. MacDonald's Compliments to Mr. James Scott Skinner
C:K. N. Macdonald
O:Scotland
B:Keith Norman MacDonald : "The Skye collection of the best reels & strathspeys extant" : 1887
Z:Ralph Palmer
R:Strathspey
M:C
L:1/8
K:G
B, | G,2 B,<D E<D B,<D | E<G A<B G2 E/E/E | [1 G,2 B,<D E<D B,<D | dB AB G<GG :|
[2 (E<G) (D<G) (B,<G) (E<G) | B,<A, G,<A, B,2 G,/G,/G, || {/c}(B<d) de g>de>d | g>de>d A<A A>c |
[1 (B<d) de g>d e>d | Bd AB G/G/G G2 :| [2 B<d A<B G<B E<G | D<G B,<G G,/G,/G, G, "D.C." x |]


